X:1
T:Cafetin De Buenos Aires
T:Cafetin De Buenos Aires 
T:Mariano Mores
C:Mariano Mores
Z:Public Domain
L:1/8
Q:1/4=120
M:4/4
K:Eb
V:1 treble nm="MusicXML Part"
%%MIDI program 0
%%MIDI control 7 102
%%MIDI control 10 64
V:1
"Cm" z ccc d2 cd |"G7" c2 =Bd c2 B2 |"Fm" z cc_c B2 AB |"Eb" A2 GB A2 G2 |"Fm" z FGF GFGF | %5
"Cm" z EFE FEFE |"D7" z DED EDED |"G7" EDF_F E2 D2 |"Cm" z ccc d2 cd |"G7" c2 =Bd c2 B2 | %10
"Fm" z cc_c B2 AB |"Cm" A2 GB A2 G2 |"Db" z FGF GFGF |"Cm" z EFE FEFE |"Ab" z DED"G7" EDC=B, | %15
"Cm" C8 |"C" z ccB BAAB | B3 c c3 B |"Ebdim7" B3 A ^G3 A |"C" c2 B2 z4 || z DDE EFFG | %21
 _A3 G G3 ^F | ^F3 G G3 =F | F2"C" E2 z4 || z c2 B BAAB | B3 c c3 _B |"A7" _B3 A A3 c | %27
"Dm" _B4 A4 | z D2 E FG"G"A=B |"C" d2 c2-"C+" ccdc |"F" d2 c2-"G7" cBBA |"C" A3 G c4 | %32
"Dm" z DEF"G7" E2 DD |"C" C4 z4 |] %34

